X: 11
T: No_106_Two_Women_Go_Traveling.krn
N: Derived from No_106_Two_Women_Go_Traveling.krn
%%abc-version 2.0
%%abcx-abcm2ps-target-version 5.9.1 (29 Sep 2008)
%%abc-creator hum2abc beta
%%abcx-conversion-date 2019/03/15 08:35:44
%%humdrum-veritas 31230208
%%humdrum-veritas-data 1568652721
%%linebreak <none>
%%barnumbers 0
L: 1/16
M: 2/4
K: C clef=bass
[K:clef=bass][M:2/4]z4z2 z3/ B,/ | 
D3C D2B,A, | 
A,A,3- A,2D, z/ B,/ | 
D3C D2B,A, | 
A,A,3 A,2B,A, | 
G,2E,2 D,D, z3/ A,/ | 
A,2B,A, G,2E,2 | 
D,D,3- D,3C, | 
D,2B,,2 A,,A,, z3/ D,/ | 
D,3B,, D,2B,,3/A,,/ | 
A,,2A,,2A,,4 | 
z4A,A,3 | 
D2DD C3/C/A,2 ||  
[M:3/8]G,3/G,/E,3/D,/D,3/A,/ ||  
[M:2/4]A,2B,A, G,2E,2 | 
D,D,3- D,3B,, | 
D,2B,,2 A,,A,, z3/ D,/ | 
D,3B,, D,2B,,3/A,,/ | 
A,,2A,,2A,,4 |]  



